img/svg/net/msie9.svg

<?xml version="1.0" encoding="iso-8859-1"?>
<!-- Generator: Adobe Illustrator 21.0.2, SVG Export Plug-In . SVG Version: 6.00 Build 0)  -->
<svg version="1.1" id="&#x56FE;&#x5C42;_1" xmlns="http://www.w3.org/2000/svg" xmlns:xlink="http://www.w3.org/1999/xlink" x="0px"
	 y="0px" viewBox="0 0 16 16" style="enable-background:new 0 0 16 16;" xml:space="preserve">
<path d="M15,8.322L15,8.322c0-1.107-0.286-2.146-0.788-3.05c2.139-4.841-2.292-4.131-2.538-4.083
	c-0.939,0.184-1.807,0.479-2.608,0.852c-0.118-0.007-0.237-0.01-0.357-0.01c-2.989,0-5.492,2.085-6.132,4.88
	C4.152,5.144,5.255,4.43,5.915,4.145C5.81,4.239,5.706,4.334,5.605,4.43c-0.034,0.032-0.066,0.064-0.1,0.096
	C5.438,4.591,5.372,4.655,5.306,4.72C5.268,4.759,5.23,4.798,5.192,4.837C5.134,4.896,5.076,4.955,5.02,5.014
	C4.979,5.056,4.94,5.098,4.901,5.14C4.848,5.197,4.796,5.253,4.744,5.31c-0.04,0.044-0.079,0.088-0.119,0.132
	c-0.049,0.055-0.097,0.11-0.145,0.165C4.441,5.653,4.402,5.699,4.363,5.745c-0.045,0.053-0.09,0.107-0.134,0.16
	C4.19,5.952,4.151,5.999,4.113,6.046C4.072,6.097,4.031,6.148,3.991,6.199C3.952,6.248,3.913,6.297,3.875,6.347
	C3.838,6.394,3.803,6.44,3.767,6.487c-0.04,0.053-0.081,0.106-0.12,0.158C3.619,6.683,3.592,6.72,3.565,6.758
	C3.316,7.097,3.089,7.43,2.884,7.749c0,0.001-0.001,0.002-0.001,0.002c-0.054,0.085-0.107,0.168-0.158,0.25
	C2.723,8.005,2.72,8.01,2.717,8.014c-0.051,0.083-0.1,0.164-0.149,0.244C2.567,8.261,2.565,8.264,2.563,8.266
	c-0.129,0.216-0.249,0.424-0.357,0.62c-0.567,1.027-0.842,1.744-0.854,1.787c-1.789,6.397,3.795,3.695,4.574,3.292
	c0.839,0.414,1.784,0.648,2.783,0.648c2.736,0,5.063-1.746,5.929-4.185h-3.306c-0.489,0.826-1.431,1.386-2.513,1.386
	c-1.585,0-2.87-1.201-2.87-2.682h8.998C14.982,8.867,15,8.597,15,8.322z M2.311,13.953C1.87,13.5,1.792,12.398,2.766,10.389
	c0.491,1.413,1.472,2.597,2.739,3.348C4.875,14.084,3.201,14.865,2.311,13.953z M5.936,7.412c0.05-1.44,1.303-2.593,2.843-2.593
	c1.54,0,2.793,1.153,2.843,2.593H5.936z M10.982,2.455c0.582-0.281,2.024-0.876,2.842-0.323c0.542,0.366,0.976,0.94,0.23,2.874
	C13.339,3.854,12.262,2.951,10.982,2.455z"/>
</svg>

<svg xmlns="http://www.w3.org/2000/svg" viewBox="0 0 16 16"><title>msie9</title><path d="M15,8.32a6.26,6.26,0,0,0-.79-3c2.14-4.84-2.29-4.13-2.54-4.08A11.27,11.27,0,0,0,9.07,2H8.71A6.29,6.29,0,0,0,2.58,6.91,10.45,10.45,0,0,1,5.92,4.14l-.31.29-.1.1-.2.19-.11.12L5,5l-.12.13-.16.17-.12.13-.14.16-.12.14-.13.16L4.11,6,4,6.2l-.12.15-.11.14-.12.16-.08.11c-.25.34-.48.67-.68,1h0L2.73,8h0l-.15.24h0l-.36.62a14.12,14.12,0,0,0-.85,1.79c-1.79,6.4,3.8,3.7,4.57,3.29a6.3,6.3,0,0,0,8.71-3.54H11.33a2.91,2.91,0,0,1-2.51,1.39A2.78,2.78,0,0,1,5.95,9.13h9A6.35,6.35,0,0,0,15,8.32ZM13.82,2.13c.54.37,1,.94.23,2.87A6.31,6.31,0,0,0,11,2.45C11.56,2.17,13,1.58,13.82,2.13ZM2.31,14c-.44-.45-.52-1.55.45-3.56A6.31,6.31,0,0,0,5.5,13.74c-.63.35-2.3,1.13-3.19.22ZM5.94,7.41A2.77,2.77,0,0,1,8.78,4.82a2.77,2.77,0,0,1,2.84,2.59H5.94Z"/></svg>
